X: 148
T: Credo
N: Derived from Rue1033-Credo.krn
C: Pierre de la Rue
%%abc-version 2.0
%%abcx-abcm2ps-target-version 5.9.1 (29 Sep 2008)
%%abc-creator hum2abc beta
%%abcx-conversion-date 2019/02/17 08:01:15
%%abc-edited-by Jesse Rodin
%%abc-edited-by Chris Gage 07-02-2013
%%abcx-initial-encoding-date 2013/07/31/
%%humdrum-veritas 3455547988
%%humdrum-veritas-data 2826126681
%%linebreak <none>
%%barnumbers 0
L: 1/4
M: 4/2
Q: 1/2=120
%%staves [1 2 3 4]
V: 1 clef=treble
V: 2 clef=treble
V: 3 clef=treble-8
V: 4 clef=bass
K: C
[V:1] z8 | 
[V:2] G4E2E2 | 
[V:3] z8 | 
[V:4] z8 | 
[V:1] z8 | 
[V:2] G2G2A4 | 
[V:3] c4A2A2 | 
[V:4] z8 | 
[V:1] c4A2A2 | 
[V:2] G4z4 | 
[V:3] c2c2d4 | 
[V:4] z8 | 
[V:1] c2c2d4 | 
[V:2] z4F3G | 
[V:3] c4z4 | 
[V:4] z8 | 
[V:1] c8 | 
[V:2] A2A2G4- | 
[V:3] z4c3d | 
[V:4] z8 | 
[V:1] c3de2e2 | 
[V:2] G4E4 | 
[V:3] e4A4 | 
[V:4] z8 | 
[V:1] d4B2d2 | 
[V:2] F6ED | 
[V:3] z2d4B2 | 
[V:4] z8 | 
[V:1] c2A2G4- | 
[V:2] E2F2G2FE | 
[V:3] c2d2G4 | 
[V:4] z8 | 
[V:1] G4z4 | 
[V:2] D4z4 | 
[V:3] z4c2c2 | 
[V:4] G,2G,2A,2A,2 | 
[V:1] z8 | 
[V:2] z8 | 
[V:3] d2d2e3d/c/ | 
[V:4] B,3A,/G,/G,4 | 
[V:1] z8 | 
[V:2] z8 | 
[V:3] c4f3e | 
[V:4] C3B,B,A,A,2- | 
[V:1] z4z2e2 | 
[V:2] z4G4 | 
[V:3] edd4^c2 | 
[V:4] A,G,F,2E,4 | 
[V:1] f4g4 | 
[V:2] F2F2EFGE | 
[V:3] d4z2e2 | 
[V:4] D,4z2G,2 | 
[V:1] c2fedcd2- | 
[V:2] A4B2G2- | 
[V:3] f4g4 | 
[V:4] F,2D,2G,4 | 
[V:1] d2c3BB2 | 
[V:2] GFF2G4- | 
[V:3] c4d2d2 | 
[V:4] A,4G,4 | 
[V:1] c8 | 
[V:2] G2FEE4- | 
[V:3] c8 | 
[V:4] C,8 | 
[V:1] z8 | 
[V:2] E4z4 | 
[V:3] z8 | 
[V:4] C2C2B,2B,2 | 
[V:1] z8 | 
[V:2] G2G2F2F2 | 
[V:3] z8 | 
[V:4] C2C2A,4 | 
[V:1] z8 | 
[V:2] G2G2E2F2- | 
[V:3] z8 | 
[V:4] z2B,2C2D2- | 
[V:1] z8 | 
[V:2] FEDCD4 | 
[V:3] z8 | 
[V:4] D2C3B,B,A, | 
[V:1] c8 | 
[V:2] C4G4 | 
[V:3] e4e2e2 | 
[V:4] C8 | 
[V:1] e2e2d4- | 
[V:2] G2G2G4 | 
[V:3] c4d4 | 
[V:4] z4G,4 | 
[V:1] d4d4- | 
[V:2] G8 | 
[V:3] B2d3cB2 | 
[V:4] G,2G,2G,4 | 
[V:1] d4B2d2 | 
[V:2] z2F2G2_B2 | 
[V:3] A4G4 | 
[V:4] D,4G,2G,2 | 
[V:1] c2A2B4- | 
[V:2] A2EFG4- | 
[V:3] c2c2d2d2 | 
[V:4] A,4G,4- | 
[V:1] B2AGG4 | 
[V:2] G4G2G2 | 
[V:3] edcBc4- | 
[V:4] G,4C,4 | 
[V:1] c2c2d2d2 | 
[V:2] A2A2B4 | 
[V:3] c4G4 | 
[V:4] z8 | 
[V:1] e4c4 | 
[V:2] G4z2c2- | 
[V:3] z8 | 
[V:4] z8 | 
[V:1] z2f4e2 | 
[V:2] c2B2AGFE | 
[V:3] z8 | 
[V:4] z8 | 
[V:1] d2d2edcB | 
[V:2] F4E2A,G, | 
[V:3] z8 | 
[V:4] z4z2F,2- | 
[V:1] A2G2F4 | 
[V:2] A,B,C4B,2 | 
[V:3] z8 | 
[V:4] F,2E,2D,4 | 
[V:1] E8 | 
[V:2] C8 | 
[V:3] z4g4 | 
[V:4] C,8 | 
[V:1] z8 | 
[V:2] z8 | 
[V:3] f2f2g4 | 
[V:4] z4C4 | 
[V:1] z8 | 
[V:2] z8 | 
[V:3] d4z4 | 
[V:4] B,2B,2C4 | 
[V:1] z8 | 
[V:2] z8 | 
[V:3] g4f2f2 | 
[V:4] G,4z4 | 
[V:1] z8 | 
[V:2] z8 | 
[V:3] g2e2defd | 
[V:4] C4B,2B,2 | 
[V:1] z8 | 
[V:2] z8 | 
[V:3] e2dcB2c2 | 
[V:4] C2A,2G,2A,2 | 
[V:1] z8 | 
[V:2] z8 | 
[V:3] c2B2c2BA | 
[V:4] A,2G,2A,2G,F, | 
[V:1] z8 | 
[V:2] z8 | 
[V:3] G4z2d2- | 
[V:4] E,2G,4F,2 | 
[V:1] z8 | 
[V:2] z8 | 
[V:3] d2c2d2B2 | 
[V:4] G,2E,2F,2D,2 | 
[V:1] c2c2d2d2 | 
[V:2] G2A2B2B2 | 
[V:3] c2BAG4 | 
[V:4] C,4z4 | 
[V:1] e6dc | 
[V:2] c4G4 | 
[V:3] z4z2c2 | 
[V:4] z8 | 
[V:1] c4z4 | 
[V:2] z2A2c4 | 
[V:3] f4f2f2 | 
[V:4] z8 | 
[V:1] z2c2f4 | 
[V:2] c2c2B4 | 
[V:3] e4d4 | 
[V:4] z8 | 
[V:1] f2f2e4 | 
[V:2] A4z4 | 
[V:3] z2d2cBc2 | 
[V:4] z8 | 
[V:1] d2d2^cBc2 | 
[V:2] z2A2GFG2 | 
[V:3] d2f2e4 | 
[V:4] z8 | 
[V:1] d8 | 
[V:2] A4z2B2 | 
[V:3] d8 | 
[V:4] z4G,4 | 
[V:1] z4e4 | 
[V:2] A2B4G2 | 
[V:3] z8 | 
[V:4] F,2G,2E,4 | 
[V:1] f4g4 | 
[V:2] A4G4 | 
[V:3] z4e4 | 
[V:4] D,4z2G,2 | 
[V:1] c3dede2- | 
[V:2] z2A4G2- | 
[V:3] f4g4 | 
[V:4] A,2F,2C4 | 
[V:1] edc4B2 | 
[V:2] GFF2G4 | 
[V:3] c2c2d2d2 | 
[V:4] A,4G,4 | 
[V:1] c4z4 | 
[V:2] z4G2G2 | 
[V:3] c4z4 | 
[V:4] z4G,2G,2 | 
[V:1] c2c2B2B2 | 
[V:2] A2A2G2G2 | 
[V:3] z4d2d2 | 
[V:4] F,2F,2G,2G,2 | 
[V:1] c2c2A4 | 
[V:2] E4z4 | 
[V:3] c2c2d2d2 | 
[V:4] C,4z4 | 
[V:1] z4c4 | 
[V:2] G4A2A2 | 
[V:3] B4z4 | 
[V:4] G,4F,2F,2 | 
[V:1] B2B2c2G2 | 
[V:2] G4G2E2- | 
[V:3] d4c2c2 | 
[V:4] G,2G,2C,2C,2 | 
[V:1] c3de2e2 | 
[V:2] EFGAG4 | 
[V:3] c2G2c2c2 | 
[V:4] C,8 | 
[V:1] d8 | 
[V:2] G4z2G2 | 
[V:3] d4B2d2- | 
[V:4] G,4G,2G,2 | 
[V:1] d4B2d2- | 
[V:2] FEF2G2G2 | 
[V:3] dcA2B2AG | 
[V:4] D,2D,2G,2F,E, | 
[V:1] dcA2B2AG | 
[V:2] A4D4- | 
[V:3] F2d4cB | 
[V:4] D,8- | 
[V:1] ^F2GFG4 | 
[V:2] D4z4 | 
[V:3] A4G4 | 
[V:4] D,4G,4 | 
[V:1] z8 | 
[V:2] z8 | 
[V:3] c4d2d2 | 
[V:4] A,2A,2B,2B,2 | 
[V:1] z4c4 | 
[V:2] G4A2A2 | 
[V:3] e2e2c4 | 
[V:4] G,4z4 | 
[V:1] d2d2e2e2 | 
[V:2] B2B2G4 | 
[V:3] z4z2c2 | 
[V:4] z2G,2C2C2 | 
[V:1] c4z4 | 
[V:2] z4z2G2 | 
[V:3] f2f2d4 | 
[V:4] A,4B,2G,2 | 
[V:1] z2c2f2f2 | 
[V:2] c2c2A3B | 
[V:3] c4d2f2 | 
[V:4] A,4D,4 | 
[V:1] d3ed2c2 | 
[V:2] A2G2A4 | 
[V:3] f3gf2e2 | 
[V:4] z4z2A,2 | 
[V:1] d4z2e2 | 
[V:2] z8 | 
[V:3] d4z4 | 
[V:4] B,4C2C2 | 
[V:1] f4g4 | 
[V:2] z2A2B2G2 | 
[V:3] z4e4 | 
[V:4] D2D2G,4 | 
[V:1] c3defe2- | 
[V:2] A2c2B3A | 
[V:3] f4g4 | 
[V:4] z2A,2E,2C2- | 
[V:1] edc4B2 | 
[V:2] G2F2G4 | 
[V:3] c4d2d2 | 
[V:4] CB,A,2G,4 | 
[V:1] c4z4 | 
[V:2] z4G4 | 
[V:3] c8 | 
[V:4] z4C4 | 
[V:1] e8 | 
[V:2] c4c4 | 
[V:3] c8 | 
[V:4] A,4A,4 | 
[V:1] f4f4 | 
[V:2] c4c4- | 
[V:3] [A4c4][A4c4] | 
[V:4] F,6E,D, | 
[V:1] e6dc | 
[V:2] c2BAG4 | 
[V:3] c4c4 | 
[V:4] C,4C,4 | 
[V:1] B3AB4 | 
[V:2] G8- | 
[V:3] d8- | 
[V:4] G,8- | 
[V:1] B8 ||  
[V:2] G8 ||  
[V:3] d8 ||  
[V:4] G,8 ||  
[V:1]  [K:C] [K:clef=treble][M:4/2]z8 | 
[V:2]  [K:C] [K:clef=treble][M:4/2]z8 | 
[V:3]  [K:C] [K:clef=treble-8][M:4/2]z4c4 | 
[V:4]  [K:C] [K:clef=bass][M:4/2]F,4F,3G, | 
[V:1] z8 | 
[V:2] z8 | 
[V:3] c3de2e2 | 
[V:4] A,2A,2G,4- | 
[V:1] z8 | 
[V:2] z8 | 
[V:3] d8 | 
[V:4] G,4F,4 | 
[V:1] z8 | 
[V:2] z8 | 
[V:3] c4c2B2 | 
[V:4] F,2E,2F,2D,2 | 
[V:1] z4c4 | 
[V:2] G4G2G2 | 
[V:3] c2BAG4 | 
[V:4] C,8 | 
[V:1] c2c2d2d2 | 
[V:2] A2A2B4 | 
[V:3] z8 | 
[V:4] z8 | 
[V:1] e4c4 | 
[V:2] G4z2A2- | 
[V:3] z8 | 
[V:4] z8 | 
[V:1] f4e2d2- | 
[V:2] A2A2G2G2 | 
[V:3] z8 | 
[V:4] z8 | 
[V:1] d2g2e2f2- | 
[V:2] B3A/B/c2A2 | 
[V:3] z4z2d2 | 
[V:4] z2G,2A,2F,2 | 
[V:1] fedcB2cB | 
[V:2] B3GG4 | 
[V:3] B2c2d4 | 
[V:4] G,8 | 
[V:1] c4z4 | 
[V:2] z4G4 | 
[V:3] c8 | 
[V:4] C,8 | 
[V:1] c4B2B2 | 
[V:2] F2F2G4 | 
[V:3] z8 | 
[V:4] z8 | 
[V:1] c4A4 | 
[V:2] E4z2F2 | 
[V:3] z8 | 
[V:4] z8 | 
[V:1] z2c2d2c2 | 
[V:2] G2F2_B2AG | 
[V:3] z8 | 
[V:4] z8 | 
[V:1] f2ede4- | 
[V:2] A4G4- | 
[V:3] c8 | 
[V:4] F,4C,2C,2- | 
[V:1] e4z4 | 
[V:2] G4z4 | 
[V:3] e4d2B2 | 
[V:4] C,D,E,F,G,2G,2 | 
[V:1] z8 | 
[V:2] A2A2B2B2 | 
[V:3] c2A2G4- | 
[V:4] F,E,F,2G,4 | 
[V:1] c2c2d2d2 | 
[V:2] c2c2B4 | 
[V:3] G8 | 
[V:4] C,4z4 | 
[V:1] e2e2c4 | 
[V:2] z2G2A2A2- | 
[V:3] z8 | 
[V:4] z8 | 
[V:1] z2e2f2f2 | 
[V:2] AGFED2A2 | 
[V:3] z8 | 
[V:4] z8 | 
[V:1] defde2d2 | 
[V:2] _B2B2G2F2 | 
[V:3] z8 | 
[V:4] z8 | 
[V:1] ed^cBc2dc | 
[V:2] GFEDE4 | 
[V:3] z8 | 
[V:4] z8 | 
[V:1] d4z4 | 
[V:2] D2D2E2F2 | 
[V:3] z2B2c2A2 | 
[V:4] z8 | 
[V:1] z4z2d2 | 
[V:2] G4z4 | 
[V:3] G2c2c2B2 | 
[V:4] z2E,2F,2D,2 | 
[V:1] e2c2B4 | 
[V:2] z4z2G2 | 
[V:3] c3B/A/G4 | 
[V:4] C,4z2E,2 | 
[V:1] z2d2e2c2 | 
[V:2] A2F2E4 | 
[V:3] z2B2c2A2 | 
[V:4] F,2D,2C,4 | 
[V:1] Bcdef2d2 | 
[V:2] z2G2A2F2 | 
[V:3] G4z4 | 
[V:4] z8 | 
[V:1] e2c2B4 | 
[V:2] E2E2G4 | 
[V:3] c4d2d2 | 
[V:4] z4G,4 | 
[V:1] z8 | 
[V:2] z8 | 
[V:3] e2dcBAB2 | 
[V:4] E,2F,2D,2D,2 | 
[V:1] e8 | 
[V:2] G8 | 
[V:3] c8 | 
[V:4] C,8 | 
[V:1] e4e4 | 
[V:2] G4G4 | 
[V:3] G4c4 | 
[V:4] C,4C,4 | 
[V:1] d8 | 
[V:2] G4A4 | 
[V:3] B4A2d2- | 
[V:4] G,4D,4 | 
[V:1] B4d4 | 
[V:2] G2B3AG2 | 
[V:3] d2d4B2 | 
[V:4] G,4B,4 | 
[V:1] c4A4 | 
[V:2] AG^FEF2GF | 
[V:3] c6Bc | 
[V:4] A,4A,4 | 
[V:1] B6AG | 
[V:2] G8 | 
[V:3] d8 | 
[V:4] G,8 | 
[V:1] G4z4 | 
[V:2] z8 | 
[V:3] c2c2d2d2 | 
[V:4] z4F,2F,2 | 
[V:1] z8 | 
[V:2] z8 | 
[V:3] e3d/c/c4 | 
[V:4] G,2G,2A,3G,/F,/ | 
[V:1] z8 | 
[V:2] z8 | 
[V:3] f4d2g2- | 
[V:4] F,4_B,4 | 
[V:1] z8 | 
[V:2] z8 | 
[V:3] gfedc2d2 | 
[V:4] G,2A,4G,F, | 
[V:1] e4f2f2 | 
[V:2] z4A4 | 
[V:3] ^cB^c2d4 | 
[V:4] E,4D,4 | 
[V:1] g3fe2dc | 
[V:2] B2B2c2c2 | 
[V:3] z8 | 
[V:4] z8 | 
[V:1] d4c4 | 
[V:2] BAB2c4 | 
[V:3] G4A3B | 
[V:4] z8 | 
[V:1] c3de2e2 | 
[V:2] A4G4 | 
[V:3] c2c2c4 | 
[V:4] F,4C,2C,2 | 
[V:1] d4B4 | 
[V:2] G2G2G2G2 | 
[V:3] B6B2 | 
[V:4] G,8 | 
[V:1] c2c2B2AG | 
[V:2] A4G2G2 | 
[V:3] A4B2c2- | 
[V:4] F,2F,2G,3E, | 
[V:1] A2G3^FF2 | 
[V:2] D8 | 
[V:3] cBAGA4 | 
[V:4] F,2G,2D,4 | 
[V:1] G8 | 
[V:2] D4z2G2- | 
[V:3] G8 | 
[V:4] G,4z4 | 
[V:1] z8 | 
[V:2] GFE3DC2- | 
[V:3] z4c4 | 
[V:4] E,8 | 
[V:1] z8 | 
[V:2] C2B,A,B,2CB, | 
[V:3] d4f4 | 
[V:4] F,4D,4 | 
[V:1] z4c4 | 
[V:2] C4G2G2- | 
[V:3] e8 | 
[V:4] C,8 | 
[V:1] d4f4 | 
[V:2] G2FED4 | 
[V:3] z8 | 
[V:4] z8 | 
[V:1] e4z2e2- | 
[V:2] C4z2c2- | 
[V:3] g6g2 | 
[V:4] z4C4- | 
[V:1] e2e2e2e2 | 
[V:2] c2c2c2c2 | 
[V:3] g2g2g4 | 
[V:4] C2C2C2C2 | 
[V:1] e4d4 | 
[V:2] c4B2B2 | 
[V:3] g8 | 
[V:4] C4G,4- | 
[V:1] d4d2d2 | 
[V:2] B2B2B4 | 
[V:3] g4g2g2 | 
[V:4] G,4G,4 | 
[V:1] d3cB2d2- | 
[V:2] G2B4AG | 
[V:3] d4d4 | 
[V:4] G,2G,2G,2G,2 | 
[V:1] d2cBA4 | 
[V:2] ^F2G3FF2 | 
[V:3] d6cB | 
[V:4] D,8 | 
[V:1] G8 | 
[V:2] G4z4 | 
[V:3] B4c4 | 
[V:4] G,4z4 | 
[V:1] z8 | 
[V:2] z8 | 
[V:3] d4e2e2 | 
[V:4] F,4G,4 | 
[V:1] z8 | 
[V:2] z8 | 
[V:3] c8 | 
[V:4] A,2A,2F,4- | 
[V:1] z8 | 
[V:2] z8 | 
[V:3] f3edce2- | 
[V:4] F,4G,4 | 
[V:1] c4d2d2 | 
[V:2] z8 | 
[V:3] edc4B2 | 
[V:4] E,2F,2D,4 | 
[V:1] e4c4 | 
[V:2] G4A2A2 | 
[V:3] c4z4 | 
[V:4] C,4z4 | 
[V:1] z2d2e2dc | 
[V:2] B4G4 | 
[V:3] z8 | 
[V:4] z8 | 
[V:1] B2e2f2ed | 
[V:2] z2G2A2GF | 
[V:3] z8 | 
[V:4] z8 | 
[V:1] cBc2d4 | 
[V:2] EDE2D4 | 
[V:3] z4z2d2 | 
[V:4] z2A,2B,4 | 
[V:1] z2e2f2f2 | 
[V:2] z4z2A2 | 
[V:3] e2g2f2f2 | 
[V:4] C4D2D2 | 
[V:1] g2g2c2Bc | 
[V:2] B2B2A2G2 | 
[V:3] d2d2fedc | 
[V:4] G,4F,2G,2- | 
[V:1] d2c3BB2 | 
[V:2] G2F2G2G2 | 
[V:3] B2c2d4 | 
[V:4] G,2A,2G,4 | 
[V:1] c8 | 
[V:2] E3DC4 | 
[V:3] c4z4 | 
[V:4] C,4F,4 | 
[V:1] z8 | 
[V:2] z8 | 
[V:3] c4e2e2 | 
[V:4] A,2A,2G,4- | 
[V:1] z8 | 
[V:2] z2G2G2G2 | 
[V:3] d4z4 | 
[V:4] G,4E,2G,2 | 
[V:1] z4c2c2 | 
[V:2] A2F2E4- | 
[V:3] A2B2c2A2 | 
[V:4] F,2D,2C,4- | 
[V:1] e2e2e4 | 
[V:2] E4G2G2 | 
[V:3] G8- | 
[V:4] C,8 | 
[V:1] d2Bcded2- | 
[V:2] G2G2G4 | 
[V:3] G8 | 
[V:4] z8 | 
[V:1] d2cBcBAG | 
[V:2] FGABA2G2 | 
[V:3] z8 | 
[V:4] z8 | 
[V:1] A4B3A/G/ | 
[V:2] ^FEF2G4- | 
[V:3] z8 | 
[V:4] z8 | 
[V:1] G4z4 | 
[V:2] G4z4 | 
[V:3] z4c4 | 
[V:4] G,4A,4 | 
[V:1] z8 | 
[V:2] z4G4 | 
[V:3] d4e4 | 
[V:4] B,4G,4 | 
[V:1] c4d4 | 
[V:2] A4B4 | 
[V:3] c4z4 | 
[V:4] z8 | 
[V:1] e4c4 | 
[V:2] G4z4 | 
[V:3] z4f3f | 
[V:4] C3CA,2A,2 | 
[V:1] z8 | 
[V:2] z4c3c | 
[V:3] d2d2e4 | 
[V:4] B,4A,4 | 
[V:1] f3fd2d2 | 
[V:2] A2A2B4 | 
[V:3] d4z2d2 | 
[V:4] z2D4B,2 | 
[V:1] e2cdefe2- | 
[V:2] EFGAG2C2 | 
[V:3] cdefgag2- | 
[V:4] C2C,4C2- | 
[V:1] e2d2^cBc2 | 
[V:2] cBAGA4 | 
[V:3] gfede4 | 
[V:4] C2D2A,4 | 
[V:1] d4z4 | 
[V:2] A8 | 
[V:3] d8 | 
[V:4] D,4z2F,2 | 
[V:1] z8 | 
[V:2] z8 | 
[V:3] z2c2d2B2 | 
[V:4] G,2E,2F,2D,2 | 
[V:1] z2c2d2B2 | 
[V:2] z2A2B2G2 | 
[V:3] c2A2G4 | 
[V:4] C,4z4 | 
[V:1] c2A2G2B2- | 
[V:2] A2F2G3F | 
[V:3] z4z2d2- | 
[V:4] z4z2G,2- | 
[V:1] BAG4^F2 | 
[V:2] D2C2D4 | 
[V:3] d2G2A4 | 
[V:4] G,F,E,2D,4 | 
[V:1] [M:3/1]G4z4z4 | 
[V:2] [M:3/1]z4D2E3FG2 | 
[V:3] [M:3/1]G4z2c3de2 | 
[V:4] [M:3/1]E,3F,G,2C,4z2 | 
[V:1] c4d2e4c2- | 
[V:2] A4F2G4G2 | 
[V:3] c2f4e4z2 | 
[V:4] F,3E,D,2C,3D,E,2 | 
[V:1] c2f4e4d2 | 
[V:2] A2F4z2A3F | 
[V:3] A4B2c4f2 | 
[V:4] F,2D,4C,2C2D2 | 
[V:1] d3B^c2d6 | 
[V:2] G2A4F3GA2 | 
[V:3] d2e4d4d2 | 
[V:4] B,2A,4D,6 | 
[V:1] z4d2e4f2 | 
[V:2] G3AB2c4c2 | 
[V:3] e4f2g4c2 | 
[V:4] z4D2C3B,A,2 | 
[V:1] g4c2d4f2 | 
[V:2] B4G2A2_B3A | 
[V:3] d4e2f3ed2 | 
[V:4] G,3F,E,2D,2_B,,4 | 
[V:1] e3cd2c4B2 | 
[V:2] G4G2F2G4 | 
[V:3] c4B2c2d4 | 
[V:4] C,4G,2A,2G,4 | 
[V:1] c3de2e2dcBA | 
[V:2] E3FGAG6- | 
[V:3] c8e4 | 
[V:4] C,4C,2C,3D,E,F, | 
[V:1] !fermata!B12 | 
[V:2] !fermata!G6G6- | 
[V:3] !fermata!d12 | 
[V:4] !fermata!G,12 | 
[V:1] c12 |]  
[V:2] G12 |]  
[V:3] c12 |]  
[V:4] C,12 |]  



